!!!COM: Anon.
!!!OTL: War Medicine Song
!!!MPN: Masukatias [Old Dog]
!!!ODT: <1918//
!!!MLC: Fort Berthold Reservation, North Dakota, United States of America
!! Song was recorded during either the summer of 1912, 1915, or 1918.
!!!AGN: monody
!!!AST: Mandan and Hidatsa War Songs
!!!AMT: irregular
!!!RWG: Transcribed pitches, durations, and meters are only approximate.
!! Drum not recorded.
**kern
*ICvox
*Imale
*clefF4
*k[b-]
*M3/4
*MM66
=1-
8f
8f
4f
4f
=2
16.c
32A
8A
4A
4F
=3
8c
8c
8c
8c
4c
*M2/4
=4
8c
8c
8A
8A
=5
8.A
16G
4F
=6
2F
=7
2C
=8
8A
8A
4A
=9
8G
8G
16G
8.F
=10
8A
8F
4F
=11
8C
8C
4C
=12
4C
4r
==
*-
!!!CNT: Hidatsa
!!!TXO: Hidatsa
!!!OCY: United States
!!!OCL: Frances Densmore
!!!YOR: Frances Densmore, "Mandan and Hidatsa Music",
!!!YOR: Bulletin 80, page 149, No. 80
!!!PPR: Smithsonian Institution, Bureau of American Ethnology
!!!PPR: Government Printing Office
!!!PDT: 1923
!!!PPP: Washington, DC, United States of America
!!!YEC: Electronic Copyright 2000 David Huron
!!!YER: August 2000
!!!YEN: United States of America
!!!ENC: David Huron
!!!RDT: August 18, 2000
!!!EEV: Release 1.0
!!!AIN: tom, vox
